src/assets/SkillMatrix.svg

<svg width="24" height="24" viewBox="0 0 24 24" fill="none" xmlns="http://www.w3.org/2000/svg">
<path d="M20.3333 20.3062C20.3333 20.6598 20.1929 20.999 19.9428 21.249C19.6928 21.4991 19.3536 21.6395 19 21.6395H4.33333C3.97971 21.6395 3.64057 21.4991 3.39052 21.249C3.14048 20.999 3 20.6598 3 20.3062V2.97286C3 2.61924 3.14048 2.2801 3.39052 2.03005C3.64057 1.78 3.97971 1.63953 4.33333 1.63953H13.7813C14.1347 1.6396 14.4736 1.77995 14.7236 2.02975L19.9431 7.2493C20.1929 7.49926 20.3333 7.83815 20.3333 8.19153V20.3062Z" stroke="#242426" stroke-width="1.5" stroke-linecap="round" stroke-linejoin="round"/>
<path d="M10.261 7.88635L8.3659 10.4126C8.30856 10.4889 8.2355 10.5521 8.15165 10.5977C8.06781 10.6434 7.97513 10.6705 7.87989 10.6772C7.78466 10.684 7.68909 10.6702 7.59964 10.6368C7.5102 10.6034 7.42897 10.5512 7.36145 10.4837L6.33301 9.45613" stroke="#242426" stroke-width="1.5" stroke-linecap="round" stroke-linejoin="round"/>
<path d="M10.261 13.8864L8.3659 16.4126C8.30856 16.4889 8.2355 16.5521 8.15165 16.5977C8.06781 16.6434 7.97513 16.6705 7.87989 16.6772C7.78466 16.684 7.68909 16.6702 7.59964 16.6368C7.5102 16.6034 7.42897 16.5512 7.36145 16.4837L6.33301 15.4552" stroke="#242426" stroke-width="1.5" stroke-linecap="round" stroke-linejoin="round"/>
<path d="M13 10.6793H17" stroke="#242426" stroke-width="1.5" stroke-linecap="round" stroke-linejoin="round"/>
<path d="M13 16.0126H17" stroke="#242426" stroke-width="1.5" stroke-linecap="round" stroke-linejoin="round"/>
</svg>

<svg xmlns="http://www.w3.org/2000/svg" width="24" height="24" fill="none"><path stroke="#242426" stroke-linecap="round" stroke-linejoin="round" stroke-width="1.5" d="M20.333 20.306A1.333 1.333 0 0 1 19 21.64H4.333A1.333 1.333 0 0 1 3 20.306V2.973A1.333 1.333 0 0 1 4.333 1.64h9.448c.354 0 .693.14.943.39l5.22 5.22c.249.25.39.588.39.942z"/><path stroke="#242426" stroke-linecap="round" stroke-linejoin="round" stroke-width="1.5" d="m10.261 7.886-1.895 2.527a.666.666 0 0 1-1.005.07L6.333 9.457M10.261 13.886l-1.895 2.527a.666.666 0 0 1-1.005.07l-1.028-1.028M13 10.68h4M13 16.013h4"/></svg>
